assets/azurepowerbiembedded/original.svg

<svg height="18" viewBox="0 0 18 18" width="18" xmlns="http://www.w3.org/2000/svg" xmlns:xlink="http://www.w3.org/1999/xlink"><linearGradient id="a" gradientUnits="userSpaceOnUse" x1="8.573" x2="16.068" y1=".564" y2="16.452"><stop offset="0" stop-color="#e6ad10"/><stop offset="1" stop-color="#c87e0e"/></linearGradient><linearGradient id="b" gradientUnits="userSpaceOnUse" x1="5.689" x2="11.993" y1="4.979" y2="17.204"><stop offset="0" stop-color="#f6d751"/><stop offset="1" stop-color="#e6ad10"/></linearGradient><linearGradient id="c" gradientUnits="userSpaceOnUse" x1="3.39" x2="6.873" y1="8.669" y2="16.925"><stop offset="0" stop-color="#f9e589"/><stop offset="1" stop-color="#f6d751"/></linearGradient><clipPath id="d"><path d="m9.71 1.185a.71.71 0 0 1 .711-.711h4.263a.71.71 0 0 1 .71.711v15.63a.71.71 0 0 1 -.71.711h-11.368a.71.71 0 0 1 -.71-.711v-7.105a.71.71 0 0 1 .71-.71h2.842v-3.552a.71.71 0 0 1 .711-.711h2.841z"/></clipPath><g clip-path="url(#d)"><path d="m15.394.474v17.052h-5.684v-17.052z" fill="url(#a)"/><path d="m11.842 5.448v12.078h-5.684v-12.789h4.973a.71.71 0 0 1 .711.711" fill="url(#b)"/><path d="m2.606 9v8.526h5.684v-7.816a.71.71 0 0 0 -.711-.71z" fill="url(#c)"/></g></svg>

<svg xmlns="http://www.w3.org/2000/svg" width="18" height="18" viewBox="0 0 18 18"><linearGradient id="b" x1="8.573" x2="16.068" y1=".564" y2="16.452" gradientUnits="userSpaceOnUse"><stop offset="0" stop-color="#e6ad10"/><stop offset="1" stop-color="#c87e0e"/></linearGradient><linearGradient id="c" x1="5.689" x2="11.993" y1="4.979" y2="17.204" gradientUnits="userSpaceOnUse"><stop offset="0" stop-color="#f6d751"/><stop offset="1" stop-color="#e6ad10"/></linearGradient><linearGradient id="d" x1="3.39" x2="6.873" y1="8.669" y2="16.925" gradientUnits="userSpaceOnUse"><stop offset="0" stop-color="#f9e589"/><stop offset="1" stop-color="#f6d751"/></linearGradient><clipPath id="a"><path d="M9.71 1.185a.71.71 0 0 1 .711-.711h4.263a.71.71 0 0 1 .71.711v15.63a.71.71 0 0 1-.71.711H3.316a.71.71 0 0 1-.71-.711V9.71a.71.71 0 0 1 .71-.71h2.842V5.448a.71.71 0 0 1 .711-.711H9.71z"/></clipPath><g clip-path="url(#a)"><path fill="url(#b)" d="M15.394.474v17.052H9.71V.474z"/><path fill="url(#c)" d="M11.842 5.448v12.078H6.158V4.737h4.973a.71.71 0 0 1 .711.711"/><path fill="url(#d)" d="M2.606 9v8.526H8.29V9.71A.71.71 0 0 0 7.579 9z"/></g></svg>
